Sources/FrostedUI/Resources/Icons.xcassets/dashedCircle12.imageset/dashed-circle-12.svg

<svg width="12" height="12" viewBox="0 0 12 12" fill="none" xmlns="http://www.w3.org/2000/svg" data-fui-icon="true">
  <path
    d="M7.16992 11.8848C6.79145 11.9596 6.40042 12 6 12C5.59924 12 5.20786 11.9597 4.8291 11.8848L5.12012 10.4141C5.40348 10.4701 5.69755 10.5 6 10.5C6.30245 10.5 6.59652 10.4701 6.87988 10.4141L7.16992 11.8848ZM2.25684 8.49902C2.58581 8.9904 3.0096 9.41419 3.50098 9.74316L3.08301 10.3652L2.99805 10.4941L2.66602 10.9883C2.01187 10.5502 1.44867 9.98725 1.01074 9.33301L2.25684 8.49902ZM10.3652 8.91602L10.6572 9.11133L10.9883 9.33301C10.5502 9.98729 9.98729 10.5502 9.33301 10.9883L8.91602 10.3662V10.3652L8.49902 9.74316C8.9904 9.41419 9.41419 8.9904 9.74316 8.49902L10.3652 8.91602ZM1.58594 5.12012C1.52988 5.40348 1.5 5.69755 1.5 6C1.5 6.30245 1.52988 6.59652 1.58594 6.87988L0.114258 7.16992C0.0394639 6.79151 0 6.40036 0 6C0 5.59931 0.039343 5.2078 0.114258 4.8291L1.58594 5.12012ZM11.8848 4.8291C11.9597 5.20786 12 5.59924 12 6C12 6.40042 11.9596 6.79145 11.8848 7.16992L10.4141 6.87988C10.4701 6.59652 10.5 6.30245 10.5 6C10.5 5.69755 10.4701 5.40348 10.4141 5.12012L11.8848 4.8291ZM3.08398 1.63379H3.08301L3.50098 2.25684C3.0096 2.58581 2.58581 3.0096 2.25684 3.50098L1.63379 3.08301L1.01074 2.66602C1.44871 2.01191 2.01191 1.44871 2.66602 1.01074L3.08398 1.63379ZM9.33301 1.01074C9.98725 1.44867 10.5502 2.01187 10.9883 2.66602L10.3662 3.08398L10.3652 3.08301L9.74316 3.50098C9.41419 3.0096 8.9904 2.58581 8.49902 2.25684L9.33301 1.01074ZM6 0C6.40036 0 6.79151 0.0394639 7.16992 0.114258L6.87988 1.58594C6.59652 1.52988 6.30245 1.5 6 1.5C5.69755 1.5 5.40348 1.52988 5.12012 1.58594L4.8291 0.114258C5.2078 0.039343 5.59931 0 6 0Z"
    fill="currentColor"
  />
</svg>

<svg xmlns="http://www.w3.org/2000/svg" width="12" height="12" fill="none" data-fui-icon="true" viewBox="0 0 12 12"><path fill="currentColor" d="M7.17 11.885a6 6 0 0 1-2.34 0l.29-1.47a4.5 4.5 0 0 0 1.76 0zM2.257 8.499c.329.491.753.915 1.244 1.244l-.418.622-.085.13-.332.493a6 6 0 0 1-1.655-1.655zm8.108.417.292.195.331.222a6 6 0 0 1-1.655 1.655l-.417-.622-.417-.623A4.5 4.5 0 0 0 9.743 8.5zM1.585 5.12a4.5 4.5 0 0 0 0 1.76l-1.47.29a6 6 0 0 1 0-2.34zm10.3-.29a6 6 0 0 1 0 2.34l-1.47-.29a4.5 4.5 0 0 0 0-1.76zM3.084 1.633zl.418.623A4.5 4.5 0 0 0 2.257 3.5l-.623-.418-.623-.417a6 6 0 0 1 1.655-1.655zm6.249-.623a6 6 0 0 1 1.655 1.655l-.622.418v-.001l-.623.418A4.5 4.5 0 0 0 8.5 2.257zM6 0q.601.001 1.17.114l-.29 1.472a4.5 4.5 0 0 0-1.76 0L4.83.114A6 6 0 0 1 6 0"/></svg>
